!!!OTL: Pancha tongxingzheng
!!!ARE: Asia, China,ÿHebei Shenxian
!! IV, 37
!!!SCT: C1919
!!!YEM: Copyright 1995, estate of Helmut Schaffrath.
**kern
*ICvox
*Ivox
*M2/4
*k[]
*C:
{8cc
8cc
8cc
8e
=1
4.g
8a
=2
8.cc
16dd
8ee
8dd
=3
2cc}
=4
{8.cc
16dd
4ee
=5
8dd
16ee
16dd
8cc
8a
=6
8.a
16g
8e
16d
16e
=7
2g}
=8
{8dd
16ee
16dd
8cc
8cc
=9
8dd
16ee
16dd
8cc
8cc
=10
8e
8g
8a
8cc
=11
4.g
8g}
=12
{8.cc
16a
8g
8cc
=13
8a
8g
8g
8d
=14
8e
8g
8e
8d
=15
4.c
8d}
=16
{8e
8g
8d
8e
=17
2g}
=18
{8.cc
16a
8g
8cc
=19
8a
8g
8g
8d
=20
8e
8g
8e
8d
=21
2c}
==
!!!AGN: Xiaodiao, Tiaobin diao
!!!AMT: simple duple
!!!AIN: vox
!!!EED: Helmut Schaffrath
!!!EEV: 1.0
*-
